X:117
T:Lord Inchiquin
M:3/4
R:Waltz
K:D
A2|"D"d2 defe|"G"d2 edcB|"D"A2 F2 A2|f4 e2|"G"d2 ed cB|"D"A2 G2 F2|"Em"G2 BA GF|"A"E4 ag|!
"D"f3 e d2|"G"d2 c2 B2|"D"A2 F2 A2|f4 e2|"G"d2 ed cB|"D"A d3 F2|"A"E4 D2|"D"D4:|!
|:A2|"A"AB cd e2|e2 d2 f2|"D"f2 d2 f2|"A"e4 d2|"D"de fg a2|"D"a2 "G"b2 g2|"D"f3 d f2|"A"e4 d2|!
"D"de fg a2|a2 "G"b2 g2|"D"f3 g e2|"Bm"d4 f2|"Em"gf e2 e2|"Em"e2 f2 d2|"A"c2 d2 B2|A4 ag|!
"D"f3 e d2|"G"d2 c2 B2|"D"A2 F2 A2|"G"g4 fe|"Bm"d2 ed cB|"D"A d3 F2|"A"E4 D2|"D"D4:|

